packages/crayons-core/src/components/icon/icon-assets/icons/scenarios.svg

<?xml version="1.0" encoding="UTF-8"?>
<svg width="16px" height="16px" viewBox="0 0 16 16" version="1.1" xmlns="http://www.w3.org/2000/svg" xmlns:xlink="http://www.w3.org/1999/xlink">
    <!-- Generator: Sketch 52.6 (67491) - http://www.bohemiancoding.com/sketch -->
    <title>icon/scenarios</title>
    <desc>Created with Sketch.</desc>
    <g id="Icons-✅" stroke="none" stroke-width="1" fill="none" fill-rule="evenodd">
        <g id="Icons" transform="translate(-736.000000, -1200.000000)" fill="currentColor">
            <g id="icon/scenarios" transform="translate(736.000000, 1200.000000)">
                <g id="scenarios">
                    <path d="M13.3,2 L9.39,2 L10.17,1.23 C10.4445556,0.953202235 10.4445556,0.506797765 10.17,0.23 C10.0397469,0.0930356182 9.85901085,0.0154997371 9.67,0.0154997371 C9.48098915,0.0154997371 9.30025306,0.0930356182 9.17,0.23 L7.17,2.23 C7.10007875,2.29368503 7.04539322,2.37229548 7.01,2.46 C6.94053394,2.62983808 6.94053394,2.82016192 7.01,2.99 C7.04798248,3.07627835 7.10231637,3.15438332 7.17,3.22 L9.17,5.22 C9.2972544,5.35476426 9.47465043,5.43079113 9.66,5.43 C9.94160289,5.42457179 10.1933722,5.25319821 10.3017011,4.99320879 C10.41003,4.73321937 10.3544341,4.43377695 10.16,4.23 L9.38,3.45 L13.3,3.45 C14.0179702,3.45 14.6,4.03202983 14.6,4.75 L14.6,13.3 C14.6,13.6447814 14.4630361,13.9754415 14.2192388,14.2192388 C13.9754415,14.4630361 13.6447814,14.6 13.3,14.6 L4.67,14.6 C4.32521856,14.6 3.99455848,14.4630361 3.75076118,14.2192388 C3.50696389,13.9754415 3.37,13.6447814 3.37,13.3 L3.37,5.3 L4.64,5.3 C5.02659932,5.3 5.34,4.98659932 5.34,4.6 L5.34,0.7 C5.34,0.313400675 5.02659932,2.36723813e-17 4.64,0 L0.7,0 C0.313400675,-2.36723813e-17 4.73447626e-17,0.313400675 0,0.7 L0,4.7 C-1.87627451e-16,4.88565154 0.0737497883,5.06369928 0.205025253,5.19497475 C0.336300718,5.32625021 0.514348457,5.4 0.7,5.4 L2,5.4 L2,13.4 C2.05330728,14.8404261 3.22866616,15.9849704 4.67,16 L13.3,16 C14.7911688,16 16,14.7911688 16,13.3 L16,4.67 C15.9835608,3.1905601 14.7795312,1.99990867 13.3,2 Z M1.4,1.4 L3.94,1.4 L3.94,4 L1.4,4 L1.4,1.4 Z" id="Shape"></path>
                </g>
            </g>
        </g>
    </g>
</svg>

<svg viewBox="0 0 16 16"><path d="M13.3 2H9.39l.78-.77a.71.71 0 0 0 0-1 .69.69 0 0 0-1 0l-2 2a.63.63 0 0 0-.16.23.7.7 0 0 0 0 .53.73.73 0 0 0 .16.23l2 2a.67.67 0 0 0 .49.21.71.71 0 0 0 .5-1.2l-.78-.78h3.92a1.3 1.3 0 0 1 1.3 1.3v8.55a1.3 1.3 0 0 1-1.3 1.3H4.67a1.3 1.3 0 0 1-1.3-1.3v-8h1.27a.7.7 0 0 0 .7-.7V.7a.7.7 0 0 0-.7-.7H.7a.7.7 0 0 0-.7.7v4a.7.7 0 0 0 .7.7H2v8A2.7 2.7 0 0 0 4.67 16h8.63a2.7 2.7 0 0 0 2.7-2.7V4.67A2.7 2.7 0 0 0 13.3 2zM1.4 1.4h2.54V4H1.4V1.4z" fill="currentColor" fill-rule="evenodd"/></svg>
